X:129
T:The Leitrim Fancy
R:jig
M:6/8
K:Edor
GBG FAF|E2B BAB|GAG FGF|DFA AFD|
GBG FAF|E2B BAB|GAB dBG|ABG FED:|
|:GAB dBd|edB dBA|GAB dBG|ABG FED|
GAB dBd|edB def|gfe dBG|ABG FED:|
